X:0363
T:Eppie McNabb.
M:6/8
L:1/8
Q:3/8=108
I: :: ::
Z:Jack Campin * www.campin.me.uk * 2009
K:A Dorian
B/d/|e>ge edB|A2A A2B|d>ed dBA|G2G G2
f   |g>fg efg|aga dga|bag  edB|e2A A2::
e/g/|aba  aec|aec A2f|g>ag gdB|gdB G2
f   |g>fg efg|aga dga|bag  edB|e2A A2:|

